nextcloudappstore/core/static/assets/img/icons/list/rocket-launch-white.svg

<svg width="20" height="20" fill="none" style="-webkit-print-color-adjust:exact" version="1.1" viewBox="0 0 20 20" xmlns="http://www.w3.org/2000/svg"><g rx="0" ry="0" fill="#000"><g class="fills"><path rx="0" ry="0" d="m10.942 18.492-1.359-3.192c1.309-0.483 2.534-1.133 3.667-1.892l-2.308 5.084zm-6.242-8.075-3.192-1.359 5.084-2.308c-0.759 1.133-1.409 2.358-1.892 3.667zm13.308-8.425s-4.125-1.768-8.841 2.95c-1.825 1.825-2.917 3.833-3.625 5.591-0.234 0.625-0.075 1.309 0.383 1.775l1.775 1.767c0.458 0.467 1.142 0.617 1.767 0.383 1.783-0.683 3.766-1.8 5.591-3.625 4.717-4.716 2.95-8.841 2.95-8.841zm-5.891 5.891c-0.65-0.65-0.65-1.708 0-2.358s1.708-0.65 2.358 0c0.642 0.65 0.65 1.708 0 2.358s-1.708 0.65-2.358 0zm-4.717 5.892-1.175-1.175 1.175 1.175zm-2.2 4.558 3.033-3.033c-0.283-0.075-0.558-0.2-0.808-0.375l-3.4 3.408h1.175zm-3.533 0h1.175l3.975-3.966-1.184-1.175-3.966 3.966v1.175zm0-2.358 3.408-3.4c-0.175-0.25-0.3-0.517-0.375-0.808l-3.033 3.033v1.175z" fill="#fff"/></g></g></svg>

<svg xmlns:xlink="http://www.w3.org/1999/xlink" width="20" xmlns="http://www.w3.org/2000/svg" height="20" id="screenshot-db15cf86-6f9e-8025-8002-bbab9ed66083" viewBox="0 0 20 20" style="-webkit-print-color-adjust: exact;" fill="none" version="1.1"><g id="shape-db15cf86-6f9e-8025-8002-bbab9ed66083" rx="0" ry="0" style="fill: rgb(0, 0, 0);"><g id="shape-db15cf86-6f9e-8025-8002-bbab9ed66085"><g class="fills" id="fills-db15cf86-6f9e-8025-8002-bbab9ed66085"><path rx="0" ry="0" d="M10.942,18.492L9.583,15.300C10.892,14.817,12.117,14.167,13.250,13.408L10.942,18.492ZM4.700,10.417L1.508,9.058L6.592,6.750C5.833,7.883,5.183,9.108,4.700,10.417ZM18.008,1.992C18.008,1.992,13.883,0.224,9.167,4.942C7.342,6.767,6.250,8.775,5.542,10.533C5.308,11.158,5.467,11.842,5.925,12.308L7.700,14.075C8.158,14.542,8.842,14.692,9.467,14.458C11.250,13.775,13.233,12.658,15.058,10.833C19.775,6.117,18.008,1.992,18.008,1.992ZM12.117,7.883C11.467,7.233,11.467,6.175,12.117,5.525C12.767,4.875,13.825,4.875,14.475,5.525C15.117,6.175,15.125,7.233,14.475,7.883C13.825,8.533,12.767,8.533,12.117,7.883ZM7.400,13.775L6.225,12.600L7.400,13.775ZM5.200,18.333L8.233,15.300C7.950,15.225,7.675,15.100,7.425,14.925L4.025,18.333L5.200,18.333ZM1.667,18.333L2.842,18.333L6.817,14.367L5.633,13.192L1.667,17.158L1.667,18.333ZM1.667,15.975L5.075,12.575C4.900,12.325,4.775,12.058,4.700,11.767L1.667,14.800L1.667,15.975ZZ" style="fill: rgb(255, 255, 255); fill-opacity: 1;"/></g></g></g></svg>
